source/img/icon_phone_btn.svg

<svg xmlns="http://www.w3.org/2000/svg" width="40" height="40" fill="none">
  <circle cx="20" cy="20" r="20" fill="#FF8D30"/>
  <path fill="#161C35" d="M19.7743 19.2239c0 .189.1536.3375.3414.3375.3891 0 .7032.3139.7032.6952 0 .1857.1536.3375.3414.3375.1877 0 .3414-.1518.3414-.3375 0-.756-.6213-1.3702-1.386-1.3702-.1878 0-.3414.1519-.3414.3375zm5.5577 1.3702c.1911 0 .3413-.1518.3413-.3375 0-3.0307-2.492-5.4945-5.5576-5.4945-.1878 0-.3414.1519-.3414.3375 0 .1857.1536.3375.3414.3375 2.69 0 4.8749 2.1634 4.8749 4.8195 0 .1857.1536.3375.3414.3375z"/>
  <path fill="#161C35" d="M22.9047 20.2566c0 .1856.1536.3375.3414.3375s.3414-.1519.3414-.3375c0-1.8934-1.5567-3.4324-3.4718-3.4324-.1878 0-.3414.1519-.3414.3375 0 .189.1536.3375.3414.3375 1.5396 0 2.789 1.2387 2.789 2.7574zM20.1157 12.7c-.1878 0-.3414.1519-.3414.3375 0 .1856.1536.3375.3414.3375 3.8405 0 6.9641 3.0881 6.9641 6.8816 0 .1856.1502.3375.3414.3375.1877 0 .3414-.1519.3414-.3375 0-4.1681-3.4309-7.5566-7.6469-7.5566zm3.3352 11.1139l-.4472.2396c-.7544.4084-1.3415 1.5277-2.2725.684L18.3001 22.3 16.2 20.2566c-1.0551-1.3331.1264-1.6504.5394-2.3996l.2424-.4388c.2731-.4995.3721-1.0597.2902-1.62-.0786-.5602-.3346-1.0698-.7442-1.4748-.4984-.4928-1.1607-.7628-1.8674-.7628-.7066 0-1.3723.27-1.8708.7628l-.174.1755c-.9218.9112-1.0276 2.4806-.3005 4.4246.6862 1.8562 2.0688 3.8677 3.8849 5.6632 2.7686 2.7372 5.8513 4.3133 8.0634 4.3133.8739 0 1.6147-.2464 2.1405-.7661l.1775-.1755c.495-.4894.7715-1.1442.7749-1.8495-.0034-.6885-.2868-1.3635-.7749-1.8462-.8227-.8133-2.1097-.9956-3.1305-.4488z"/>
</svg>

<svg width="40" height="40" viewBox="0 0 40 40" fill="none" xmlns="http://www.w3.org/2000/svg">
<circle cx="20" cy="20" r="20" fill="#FF8D30"/>
<path d="M19.7743 19.2239C19.7743 19.4129 19.9279 19.5614 20.1157 19.5614C20.5048 19.5614 20.8189 19.8753 20.8189 20.2566C20.8189 20.4423 20.9725 20.5941 21.1603 20.5941C21.348 20.5941 21.5017 20.4423 21.5017 20.2566C21.5017 19.5006 20.8804 18.8864 20.1157 18.8864C19.9279 18.8864 19.7743 19.0383 19.7743 19.2239ZM25.332 20.5941C25.5231 20.5941 25.6733 20.4423 25.6733 20.2566C25.6733 17.2259 23.1813 14.7621 20.1157 14.7621C19.9279 14.7621 19.7743 14.914 19.7743 15.0996C19.7743 15.2853 19.9279 15.4371 20.1157 15.4371C22.8057 15.4371 24.9906 17.6005 24.9906 20.2566C24.9906 20.4423 25.1442 20.5941 25.332 20.5941Z" fill="#161C35"/>
<path d="M22.9047 20.2566C22.9047 20.4422 23.0583 20.5941 23.2461 20.5941C23.4339 20.5941 23.5875 20.4422 23.5875 20.2566C23.5875 18.3632 22.0308 16.8242 20.1157 16.8242C19.9279 16.8242 19.7743 16.9761 19.7743 17.1617C19.7743 17.3507 19.9279 17.4992 20.1157 17.4992C21.6553 17.4992 22.9047 18.7379 22.9047 20.2566ZM20.1157 12.7C19.9279 12.7 19.7743 12.8519 19.7743 13.0375C19.7743 13.2231 19.9279 13.375 20.1157 13.375C23.9562 13.375 27.0798 16.4631 27.0798 20.2566C27.0798 20.4422 27.23 20.5941 27.4212 20.5941C27.6089 20.5941 27.7626 20.4422 27.7626 20.2566C27.7626 16.0885 24.3317 12.7 20.1157 12.7ZM23.4509 23.8139L23.0037 24.0535C22.2493 24.4619 21.6622 25.5812 20.7312 24.7375L18.3001 22.3L16.2 20.2566C15.1449 18.9235 16.3264 18.6062 16.7394 17.857L16.9818 17.4182C17.2549 16.9187 17.3539 16.3585 17.272 15.7982C17.1934 15.238 16.9374 14.7284 16.5278 14.3234C16.0294 13.8306 15.3671 13.5606 14.6604 13.5606C13.9538 13.5606 13.2881 13.8306 12.7896 14.3234L12.6156 14.4989C11.6938 15.4101 11.588 16.9795 12.3151 18.9235C13.0013 20.7797 14.3839 22.7912 16.2 24.5867C18.9686 27.3239 22.0513 28.9 24.2634 28.9C25.1373 28.9 25.8781 28.6536 26.4039 28.1339L26.5814 27.9584C27.0764 27.469 27.3529 26.8142 27.3563 26.1089C27.3529 25.4204 27.0695 24.7454 26.5814 24.2627C25.7587 23.4494 24.4717 23.2671 23.4509 23.8139Z" fill="#161C35"/>
</svg>
